eye1.svg

<?xml version="1.0" encoding="UTF-8" standalone="no"?>
<!-- Created with Inkscape (http://www.inkscape.org/) -->

<svg
   xmlns:dc="http://purl.org/dc/elements/1.1/"
   xmlns:cc="http://creativecommons.org/ns#"
   xmlns:rdf="http://www.w3.org/1999/02/22-rdf-syntax-ns#"
   xmlns:svg="http://www.w3.org/2000/svg"
   xmlns="http://www.w3.org/2000/svg"
   xmlns:sodipodi="http://sodipodi.sourceforge.net/DTD/sodipodi-0.dtd"
   xmlns:inkscape="http://www.inkscape.org/namespaces/inkscape"
   width="392.15625"
   height="152.3134"
   id="svg2"
   version="1.1"
   inkscape:version="0.48.2 r9819"
   sodipodi:docname="eye1.svg">
  <defs
     id="defs4" />
  <sodipodi:namedview
     id="base"
     pagecolor="#ffffff"
     bordercolor="#666666"
     borderopacity="1.0"
     inkscape:pageopacity="0.0"
     inkscape:pageshadow="2"
     inkscape:zoom="0.35"
     inkscape:cx="172.23444"
     inkscape:cy="80.397172"
     inkscape:document-units="px"
     inkscape:current-layer="layer1"
     showgrid="false"
     inkscape:window-width="1321"
     inkscape:window-height="839"
     inkscape:window-x="43"
     inkscape:window-y="0"
     inkscape:window-maximized="0"
     fit-margin-top="0"
     fit-margin-left="0"
     fit-margin-right="0"
     fit-margin-bottom="0" />
  <metadata
     id="metadata7">
    <rdf:RDF>
      <cc:Work
         rdf:about="">
        <dc:format>image/svg+xml</dc:format>
        <dc:type
           rdf:resource="http://purl.org/dc/dcmitype/StillImage" />
      </cc:Work>
    </rdf:RDF>
  </metadata>
  <g
     inkscape:label="Layer 1"
     inkscape:groupmode="layer"
     id="layer1"
     transform="translate(-183.84375,-156.06205)">
    <path
       style="fill:#57722d;fill-opacity:1;fill-rule:evenodd;stroke:none"
       d="m 378.78125,156.0625 c -91.25292,0 -184.55092,59.57396 -194.75,76 l -0.1875,0 c 0.0283,0.049 0.0639,0.10637 0.0937,0.15625 -0.0299,0.0499 -0.0654,0.1072 -0.0937,0.15625 l 0.1875,0 c 10.19908,16.42604 103.49708,76 194.75,76 0.35344,0 0.70859,10e-4 1.0625,0 0.0521,-1.5e-4 0.10425,2.8e-4 0.15625,0 0.35391,9.4e-4 0.70906,0 1.0625,0 91.25292,0 184.55092,-59.57396 194.75,-76 l 0.1875,0 c -0.0283,-0.049 -0.0639,-0.10637 -0.0937,-0.15625 0.0299,-0.0499 0.0654,-0.1072 0.0937,-0.15625 l -0.1875,0 c -10.19908,-16.42604 -103.49708,-76 -194.75,-76 -0.35344,0 -0.70859,-9.4e-4 -1.0625,0 -0.052,-2.8e-4 -0.1042,1.5e-4 -0.15625,0 -0.35391,-0.001 -0.70906,0 -1.0625,0 z"
       id="path3906"
       inkscape:connector-curvature="0" />
    <path
       style="fill:#bed799;fill-opacity:1;stroke:none"
       d="m 377.1039,161.90879 c -40.33965,0.72361 -74.28971,41.72186 -66.60569,81.64578 4.94767,33.77563 37.12665,61.77077 71.73069,59.82297 32.3337,-0.57234 63.87685,-25.37347 67.75,-58.25 5.14647,-31.40038 -11.42569,-66.81264 -42.15625,-78 -9.69391,-3.83511 -20.25326,-5.57016 -30.71875,-5.21875 z"
       id="path3820"
       inkscape:connector-curvature="0" />
    <path
       style="fill:#ed581f;fill-opacity:1;stroke:none"
       d="m 380.41063,190.92306 c -9.1795,0 -16.63029,7.45079 -16.63029,16.63029 0,1.21326 0.12029,2.38494 0.36711,3.5243 4.5754,-3.50015 10.14997,-5.61377 16.18976,-5.47 5.84335,-0.22297 11.56837,1.52985 16.41002,4.73577 0.15525,-0.91261 0.25698,-1.83322 0.25698,-2.79007 0,-9.1795 -7.41408,-16.63029 -16.59358,-16.63029 z m -25.51447,18.39244 c -9.1795,0 -16.63029,7.4508 -16.63029,16.6303 0,8.6667 6.62186,15.752 15.08841,16.52016 -3.5485,-11.10046 1.22136,-23.57545 10.05894,-30.80092 -2.49624,-1.49834 -5.39374,-2.34954 -8.51706,-2.34954 z m 26.10186,0.58739 c -13.43955,0 -24.33971,10.90015 -24.33971,24.3397 0,13.43954 10.90016,24.3397 24.33971,24.3397 13.43954,0 24.3397,-10.90016 24.3397,-24.3397 0,-13.43955 -10.90016,-24.3397 -24.3397,-24.3397 z m 25.51446,0.58738 c -2.59621,0 -5.04304,0.62726 -7.23216,1.68873 9.58411,7.22003 12.31278,20.45242 8.70062,31.46172 8.48559,-0.7494 15.16184,-7.83986 15.16184,-16.52016 0,-9.17949 -7.4508,-16.63029 -16.6303,-16.63029 z m -53.01135,32.45294 c -2.83608,2.98128 -4.55222,7.01434 -4.55222,11.45397 0,9.1795 7.45079,16.6303 16.63029,16.6303 6.11375,0 11.43067,-3.30653 14.31747,-8.22337 -10.51772,-0.60646 -20.8481,-6.68875 -25.07393,-16.70372 -0.52326,-1.03033 -0.95732,-2.09328 -1.32161,-3.15718 z m 54.33297,1.24819 c -1.71043,4.89096 -4.69854,9.30476 -8.92089,12.51861 -5.17639,4.44269 -11.75276,6.36018 -18.31902,6.13081 2.80255,5.22106 8.3074,8.77404 14.64787,8.77404 9.1795,0 16.59359,-7.41408 16.59359,-16.59358 0,-4.13643 -1.50138,-7.92115 -4.00155,-10.82988 z"
       id="path3824"
       inkscape:connector-curvature="0" />
  </g>
</svg>

<?xml version="1.0" encoding="UTF-8" standalone="no"?>
<!-- Created with Inkscape (http://www.inkscape.org/) -->

<svg
   xmlns:dc="http://purl.org/dc/elements/1.1/"
   xmlns:cc="http://creativecommons.org/ns#"
   xmlns:rdf="http://www.w3.org/1999/02/22-rdf-syntax-ns#"
   xmlns:svg="http://www.w3.org/2000/svg"
   xmlns="http://www.w3.org/2000/svg"
   xmlns:sodipodi="http://sodipodi.sourceforge.net/DTD/sodipodi-0.dtd"
   xmlns:inkscape="http://www.inkscape.org/namespaces/inkscape"
   width="744.09448819"
   height="1052.3622047"
   id="svg2"
   version="1.1"
   inkscape:version="0.48.2 r9819"
   sodipodi:docname="eye1.svg">
  <defs
     id="defs4" />
  <sodipodi:namedview
     id="base"
     pagecolor="#ffffff"
     bordercolor="#666666"
     borderopacity="1.0"
     inkscape:pageopacity="0.0"
     inkscape:pageshadow="2"
     inkscape:zoom="0.35"
     inkscape:cx="356.07819"
     inkscape:cy="824.38391"
     inkscape:document-units="px"
     inkscape:current-layer="layer1"
     showgrid="false"
     inkscape:window-width="1321"
     inkscape:window-height="839"
     inkscape:window-x="43"
     inkscape:window-y="0"
     inkscape:window-maximized="0" />
  <metadata
     id="metadata7">
    <rdf:RDF>
      <cc:Work
         rdf:about="">
        <dc:format>image/svg+xml</dc:format>
        <dc:type
           rdf:resource="http://purl.org/dc/dcmitype/StillImage" />
      </cc:Work>
    </rdf:RDF>
  </metadata>
  <g
     inkscape:label="Layer 1"
     inkscape:groupmode="layer"
     id="layer1">
    <path
       style="fill:#57722d;fill-opacity:1;fill-rule:evenodd;stroke:none"
       d="M 378.78125 156.0625 C 287.52833 156.0625 194.23033 215.63646 184.03125 232.0625 L 183.84375 232.0625 C 183.87206 232.11155 183.9076 232.16887 183.9375 232.21875 C 183.9076 232.26863 183.87206 232.32595 183.84375 232.375 L 184.03125 232.375 C 194.23033 248.80104 287.52833 308.375 378.78125 308.375 C 379.13469 308.375 379.48984 308.376 379.84375 308.375 C 379.8958 308.37485 379.948 308.37528 380 308.375 C 380.35391 308.37594 380.70906 308.375 381.0625 308.375 C 472.31542 308.375 565.61342 248.80104 575.8125 232.375 L 576 232.375 C 575.97169 232.32595 575.93615 232.26863 575.90625 232.21875 C 575.93615 232.16887 575.97169 232.11155 576 232.0625 L 575.8125 232.0625 C 565.61342 215.63646 472.31542 156.0625 381.0625 156.0625 C 380.70906 156.0625 380.35391 156.06156 380 156.0625 C 379.94803 156.06222 379.8958 156.06265 379.84375 156.0625 C 379.48984 156.06149 379.13469 156.0625 378.78125 156.0625 z "
       id="path3906" />
    <path
       style="fill:#bed799;fill-opacity:1;stroke:none"
       d="m 377.1039,161.90879 c -40.33965,0.72361 -74.28971,41.72186 -66.60569,81.64578 4.94767,33.77563 37.12665,61.77077 71.73069,59.82297 32.3337,-0.57234 63.87685,-25.37347 67.75,-58.25 5.14647,-31.40038 -11.42569,-66.81264 -42.15625,-78 -9.69391,-3.83511 -20.25326,-5.57016 -30.71875,-5.21875 z"
       id="path3820"
       inkscape:connector-curvature="0" />
    <path
       style="fill:#ed581f;fill-opacity:1;stroke:none"
       d="m 380.41063,190.92306 c -9.1795,0 -16.63029,7.45079 -16.63029,16.63029 0,1.21326 0.12029,2.38494 0.36711,3.5243 4.5754,-3.50015 10.14997,-5.61377 16.18976,-5.47 5.84335,-0.22297 11.56837,1.52985 16.41002,4.73577 0.15525,-0.91261 0.25698,-1.83322 0.25698,-2.79007 0,-9.1795 -7.41408,-16.63029 -16.59358,-16.63029 z m -25.51447,18.39244 c -9.1795,0 -16.63029,7.4508 -16.63029,16.6303 0,8.6667 6.62186,15.752 15.08841,16.52016 -3.5485,-11.10046 1.22136,-23.57545 10.05894,-30.80092 -2.49624,-1.49834 -5.39374,-2.34954 -8.51706,-2.34954 z m 26.10186,0.58739 c -13.43955,0 -24.33971,10.90015 -24.33971,24.3397 0,13.43954 10.90016,24.3397 24.33971,24.3397 13.43954,0 24.3397,-10.90016 24.3397,-24.3397 0,-13.43955 -10.90016,-24.3397 -24.3397,-24.3397 z m 25.51446,0.58738 c -2.59621,0 -5.04304,0.62726 -7.23216,1.68873 9.58411,7.22003 12.31278,20.45242 8.70062,31.46172 8.48559,-0.7494 15.16184,-7.83986 15.16184,-16.52016 0,-9.17949 -7.4508,-16.63029 -16.6303,-16.63029 z m -53.01135,32.45294 c -2.83608,2.98128 -4.55222,7.01434 -4.55222,11.45397 0,9.1795 7.45079,16.6303 16.63029,16.6303 6.11375,0 11.43067,-3.30653 14.31747,-8.22337 -10.51772,-0.60646 -20.8481,-6.68875 -25.07393,-16.70372 -0.52326,-1.03033 -0.95732,-2.09328 -1.32161,-3.15718 z m 54.33297,1.24819 c -1.71043,4.89096 -4.69854,9.30476 -8.92089,12.51861 -5.17639,4.44269 -11.75276,6.36018 -18.31902,6.13081 2.80255,5.22106 8.3074,8.77404 14.64787,8.77404 9.1795,0 16.59359,-7.41408 16.59359,-16.59358 0,-4.13643 -1.50138,-7.92115 -4.00155,-10.82988 z"
       id="path3824"
       inkscape:connector-curvature="0" />
  </g>
</svg>
